X:1
T:Drifting and Dreaming
T:drifting and dreaming
T:unknown
C:unknown
Z:All Rights Reserved
L:1/4
M:3/4
K:Bb
V:1 treble 
%%MIDI program 40
V:1
 G3 | B2 e | d3 | F3 | f3 | e2 A | B3 | B A _A | G3 | B2 e | d3 | F3 | f3 | e2 A | B3 | d3 | e2 d | %17
 d3 | G3 | c3 | d2 c | F3 | F3 | G3 | B2 e | d3 | F3 | f3 | e2 A | B3 | B3 |] %31

